assets/images/badge-frames/frame-square.svg

<svg xmlns="http://www.w3.org/2000/svg" width="278" height="305" fill="none"><path fill="url(#a)" d="M261 2V0zm15 15h2zm0 268h2zm-15 15v2zm-244 0v2zM2 285H0zM2 17H0zM17 2V0zm244 0v2c7.18 0 13 5.82 13 13h4c0-9.389-7.611-17-17-17zm15 15h-2v268h4V17zm0 268h-2c0 7.18-5.82 13-13 13v4c9.389 0 17-7.611 17-17zm-15 15v-2H17v4h244zm-244 0v-2c-7.18 0-13-5.82-13-13H0c0 9.389 7.611 17 17 17zM2 285h2V17H0v268zM2 17h2C4 9.82 9.82 4 17 4V0C7.611 0 0 7.611 0 17zM17 2v2h244V0H17z"/><defs><linearGradient id="a" x1="-18.893" x2="334.593" y1="-27.06" y2="98.814" gradientUnits="userSpaceOnUse"><stop stop-color="#7E67D2"/><stop offset="1" stop-color="#FBE8F7"/></linearGradient></defs></svg>

<svg width="278" height="305" viewBox="0 0 278 305" fill="none" xmlns="http://www.w3.org/2000/svg">
<path d="M261 2V0V0V2ZM276 17H278H276ZM276 285H278V285H276ZM261 300V302V302V300ZM17 300L17 302H17V300ZM2 285H0H2ZM2 17L0 17V17H2ZM17 2V0V0V2ZM261 2V4C268.18 4 274 9.8203 274 17H276H278C278 7.61116 270.389 2.74181e-06 261 0V2ZM276 17H274V285H276H278V17H276ZM276 285H274C274 292.18 268.18 298 261 298V300V302C270.389 302 278 294.389 278 285H276ZM261 300V298H17V300V302H261V300ZM17 300L17 298C9.8203 298 4 292.18 4 285H2H0C1.19209e-07 294.389 7.61116 302 17 302L17 300ZM2 285H4V17H2H0V285H2ZM2 17L4 17C4 9.8203 9.8203 4 17 4V2V0C7.61116 2.38419e-07 2.86102e-06 7.61116 0 17L2 17ZM17 2V4H261V2V0H17V2Z" fill="url(#paint0_linear_2286_160)"/>
<defs>
<linearGradient id="paint0_linear_2286_160" x1="-18.8932" y1="-27.0603" x2="334.593" y2="98.8138" gradientUnits="userSpaceOnUse">
<stop stop-color="#7E67D2"/>
<stop offset="1" stop-color="#FBE8F7"/>
</linearGradient>
</defs>
</svg>
